X:1
T:Title
%%score { ( 1 3 ) | 2 }
L:1/8
M:4/4
K:Bb
V:1 treble nm="Grand Piano"
V:3 treble 
V:2 bass 
V:1
 z4 z2[Q:1/4=100] [B,D]>[CE] | [DF]2 [DG]>[DA] [DB]2 d>d | c2 B2 F2 [DF]>[DB] | A2 E>E A2 G2 | %4
 [DF]6 [B,D]>[CE] | [DF]2 [DG]>[DA] [DB]2 [Fd]>[Fd] | [Ec]2 [EB]2 [Dd]2 [B,DF]>[DFB] | %7
 [CFA]2 [CFA]>[CFA] [DFB]2 [EFc]2 | %8
[M:11/16] [DFB]/-[DFB]/-[DFB]/-[DFB]/-[DFB]/-[DFB]/-[DFB]/-[DFB]-<[DFB] |[M:5/16] [DB]<[DB][^Fc]/ | %10
[M:4/4] [GB]6 z2 | z2 E2 D2 [DB]>[Ec] | [Fd]2 [Ec]>[DB] [=Ed]2 [Ec]2 | c6 z2 | [Fd]6 z2 | %15
[M:11/8] f-f-f-f-f-f- f3 z2 |[M:4/4] d2 c>B d2 c2 |[M:3/4] [DB]6 |] %18
V:2
 z4 z2 [B,,F,]>[B,,F,] | [B,,B,]2 [B,,B,]>[B,,B,] [B,,B,]2[K:treble] [B,F]>[B,F] | %2
 [F,A,E]2 [G,B,D]2 [D,B,]2 [B,,B,]>[B,,B,] | [F,CE]2 [F,A,C]>[F,A,C] [F,CE]2 [F,A,E]2 | %4
 [B,,B,]6 [B,,F,]>[B,,F,] | [B,,B,]2 [B,,B,]>[B,,B,] [B,,B,]2 [B,,B,]>[B,,B,] | %6
 [B,,G,]2 [B,,^F,]2 [B,,=F,]2 B,,>B,, | F,2 F,>F, F,2 F,2 | %8
[M:11/16] B,,/-B,,/-B,,/-B,,/-B,,/-B,,/-B,,/-B,,-<B,, |[M:5/16] [B,,B,]<[B,,B,][D,B,]/ | %10
[M:4/4] [E,B,]>E, E,>E, E,>[E,B,E] [E,G,E]>[E,G,E] | [D,B,]2 [C,A,]2 [B,,B,]2 [B,,F,]>[B,,F,] | %12
 [B,,B,]2 [B,,B,]>[B,,B,] [C,B,]2 [C,B,]2 | %13
 [F,A,F]>[F,A,] [G,B,]>[G,B,] [F,A,]>[F,A,E] [F,A,E]>[F,A,E] | %14
 [B,,B,]>B,, B,,>B,, B,,>[B,,B,] [C,A,]>[D,B,] | %15
[M:11/8] [F,A,F]>[F,A,][F,C]>[F,D]- [F,D]2 [F,E]3[K:treble] [F,A,F]>[F,A,F] | %16
[M:4/4] [B,F]2[K:bass] [B,E]>[B,D] [F,A,F]2 [F,A,E]2 |[M:3/4] [B,,B,]6 |] %18
V:3
 x8 | x8 | x8 | x8 | x8 | x8 | x8 | x8 |[M:11/16] x11/2 |[M:5/16] x5/2 | %10
[M:4/4] z z/ E/ E>E E>G B>B | F6 z2 | x8 | z z/ F/ =E>E F>F G>F | %14
 z z/ B,/ B,>B, B,>[Fd] [Fc]>[FB] |[M:11/8] z z/ F<AB/- B2 c3 e>e |[M:4/4] x8 |[M:3/4] x6 |] %18

